X:1
T:Sechs Gesänge
T:Lieblingsplätzchen
T:Felix Mendelssohn Bartholdy
T:Aus des Knaben Wunderhorn
T:Lieblingsplätzchen
T:Op. 99, No. 3
T:CPDL - Creative Commons Attribution Non Commercial 3.0
T:CPDL - Creative Commons Attribution Non Commercial 3.0
C:Felix Mendelssohn Bartholdy
Z:Aus des Knaben Wunderhorn
Z:CPDL - Creative Commons Attribution Non Commercial 3.0
%%score 1 { ( 2 4 6 ) | ( 3 5 ) }
L:1/8
Q:1/4=80
M:3/4
K:G
V:1 treble nm="Sing-\nstimme"
V:2 treble nm="Klavier"
V:4 treble 
V:6 treble 
V:3 bass 
V:5 bass 
V:1
"^Andante" B3 B BB | d>c B4 | G3 G AA | Bd A2 z2 | B3 B BB | d>c B4 | G3 G AA | B4 F z | FG F2 B2 | %9
w: 1.~Wisst ihr, wo ich|ger- ne weil'|in der A- bend-|küh- * le?|In dem stil- len|Ta- le geht|ei- ne klei- ne|Müh- le,|und ein klei- ner|
w: 2.~Auch die Blüm- lein|in dem Grün|an zu spre- chen|fan- * gen,|und das blau- e|Blüm- lein sagt:|sieh mein Köpf- chen|han- gen!|Rös- lein mit dem|
w: 3.~Da naht sich ein|Spinn- lein weis',|spricht: sei doch zu-|frie- * den;|ein- mal musst du|doch ver- gehn,|so ist es hie-|nie- den;|bes- ser, dass das|
 FG F2 z2 | GF"^cresc." GA B^c |"^dim." (e3 d)[Q:1/4=76]"^rallent." ^c=c | %12
w: Bach da- bei,|rings um- her _ steh'n _|Bäu- * me. _|
w: Dor- nen- kuss|hat mich so * ge- *|sto- * chen; _|
w: Herz dir bricht|von dem Kuss _ der _|Ro- * se, _|
[Q:1/4=80]"^a tempo"!p! B3 B BB | d>c B4 | GF G2 A2 | B6- | B2 A2 cB | G2 z2 z2 | z6 |] %19
w: Oft sitz' ich da|stun- den- lang,|schau um- her und|träu-||me.||
w: ach, das macht mich|gar be- trübt,|hat mein Herz ge-|bro-||chen.||
w: als du kennst die|Lie- be nicht|und stirbst lie- be-|lo-||se.||
V:2
 [GB]3 [GB][GB][GB] | d>c [GB]4 | [B,G]3 [B,G][CA][CA] | Bd A2 z2 | B3 BBB | d>c B4 | %6
 [B,G]3 [B,G][^CA][CA] | [^DB]4 z2 | .[^DF].[EG] [DF]2 [DB]2 | .[^DF].[EG] [DF]2 .[DB].[D=A] | %10
 (.[EG].F.G.[EA].[EB].G) | F6 | [DGB]3 [DGB][DGB][GB] | d>c B4 | [B,G]4 [^CA]2 | B6 | B2 A4 | %17
 [B,G]3 [B,G][B,G][B,G] | G2 [B,G]4 |] %19
V:3
!p! [G,D]3 [G,D][G,D][G,D] | [G,_E]2 [G,D]4 | [=E,G,]3 [E,G,][E,G,][E,G,] | G,B, F,2 z2 | %4
 (G,2 F,2!<(! =F,2)!<)! |!>(! (E,2!>)! _E,2 D,2) | [=E,G,]3 [E,G,][E,G,][E,G,] | [B,,F,]4 z2 | %8
!p! .B,.^A, B,2 F,2 | .B,.^A, B,2 .[G,B,].[F,B,] | %10
 (.[E,B,]!<(!.[^D,B,].[E,B,].[F,B,].[G,B,].[E,=A,])!<)! |!>(! [=D,A,]6!>)! |!p! G,3 G,G,[G,D] | %13
 [G,_E]2 [G,D]4 |"^dim." [=E,G,]4 [E,G,]2 |!pp! [B,,F,]4 [G,,=F,-]2 | F,2 E,2 [D,,D,]2 | %17
"^express." [G,,G,]3 [G,,D,][G,,D,][G,,D,] | =F,E, [G,,D,]4 |] %19
V:4
 x6 | G2 x4 | x6 | D2 D2 x2 | (G2 F2 =F2) | (E2 _E2 D2) | x6 | x6 | x6 | x6 | x6 | x6 | x6 | %13
 G2 G4 | x6 | ^D4 =D2- | D2 x2 ^F2 | x6 | D>C x4 |] %19
V:5
 x6 | x6 | x6 | D,2 D,2 x2 | G,,6 | G,,2 G,,4 | x6 | x6 | x6 | x6 | x6 | x6 | x6 | x6 | x6 | x6 | %16
 C,4 x2 | x6 | G,,2 x4 |] %19
V:6
 x6 | x6 | x6 | x6 | x6 | x6 | x6 | x6 | x6 | x6 | x6 | x6 | x6 | x6 | x6 | x6 | x2 C4 | x6 | x6 |] %19

